src/assets/icons/account.svg

<svg width="24" height="24" viewBox="0 0 24 24" fill="currentColor" xmlns="http://www.w3.org/2000/svg">
<path d="M8.28745 13.275C9.33745 14.0625 10.6125 14.5125 12 14.5125C13.3875 14.5125 14.6625 14.0625 15.7125 13.275C19.2375 13.5 22.0125 15.9 22.0125 19.5C22.0125 19.5 17.6625 20.7375 12 20.7375C6.33745 20.7375 1.98745 19.5 1.98745 19.5C1.98745 15.9 4.76245 13.5 8.28745 13.275ZM12 13.275C9.22495 13.275 6.97495 11.025 6.97495 8.24998C6.97495 7.91248 7.01245 7.61248 7.04995 7.27498L7.01245 7.27498C7.49995 4.98748 9.52495 3.22498 11.9625 3.22498C13.8375 3.22498 15.5625 4.23748 16.35 5.81248C16.7625 6.52498 16.9875 7.38748 16.9875 8.24998C17.025 11.025 14.775 13.275 12 13.275Z" fill="currentColor"/>
</svg>

<svg xmlns="http://www.w3.org/2000/svg" width="24" height="24" fill="currentColor"><path d="M8.287 13.275A6.138 6.138 0 0 0 12 14.512c1.387 0 2.662-.45 3.713-1.237 3.525.225 6.3 2.625 6.3 6.225 0 0-4.35 1.238-10.013 1.238S1.987 19.5 1.987 19.5c0-3.6 2.775-6 6.3-6.225Zm3.713 0A5.025 5.025 0 0 1 6.975 8.25c0-.338.037-.638.075-.975h-.038c.488-2.288 2.513-4.05 4.95-4.05 1.876 0 3.6 1.012 4.388 2.587.412.713.637 1.575.637 2.438.038 2.775-2.212 5.025-4.987 5.025Z"/></svg>
